X: 28
T:Claudine
R:Reel
C:Emile Benoit
M:C|
L:1/8
Z:Gerry Strong
K:D
:|~A2 FA DAFA|~G2 E=C G=CEG|~A2 FA DAFA|Bcde fd ~d2:|
|:Adde fded|=cded =cAGE|Ddde fded|=c AGE ED ~D2|Adde fded|=cded =cAGE|Dd
de fded|dage ed ~d2:|
<end>
<start>
